!!!OTL@@FUR: Simpri Toni...
!!!OTL@IT: Sempre Antonio ...
!!!OTL@EN: Always Tony
**kern
*clefG2
*k[f#]
*G:
*M3/4
*MM120
*>[A]
=1
*>A
2dd
4dd
=2
2b
4b
=3
2dd
4dd
=4
2cc
4cc
=5
2dd
4dd
=6
2cc
4cc
=7
4ee
4dd
4cc
=8
2.b
=9
2dd
4dd
=10
2b
4b
=11
2dd
4dd
=12
2cc
4cc
=13
2dd
4dd
=14
2cc
4cc
=15
4ff#
4ee
4cc
=16
[2.b
=17
4b]
4r
4r
==
*-
!!!ARE: Friui
!!!ENC: Kelly Leistikow
!!!END: 2002/22/02
!!!ref: @{OTL@@FUR}/@{OTL@EN}
